fs/diversity_48_filled.svg

<svg viewBox="0 0 48 48" fill="none" xmlns="http://www.w3.org/2000/svg" height="1em" width="1em">
  <path d="M31 6C28.2386 6 26 8.23858 26 11V17C26 19.7614 28.2386 22 31 22H37C39.7614 22 42 19.7614 42 17V11C42 8.23858 39.7614 6 37 6H31ZM16.9042 7.79686C15.6992 5.40104 12.3104 5.40105 11.1054 7.79687L6.36167 17.2286C5.26282 19.4134 6.8346 22 9.26105 22L18.7486 22C21.175 22 22.7468 19.4134 21.648 17.2286L16.9042 7.79686ZM8.77225 27.9442C8.22396 28.4179 7.74069 28.9649 7.33762 29.5698V29.5698L7.33667 29.5713C7.3527 29.5857 7.36844 29.6007 7.38388 29.6161L18.4302 40.6624C19.2265 40.1318 19.9224 39.4622 20.483 38.6883L9.55943 27.3446C9.37728 27.4663 9.20042 27.5954 9.02925 27.7313V27.7313C8.98906 27.7632 8.94917 27.7955 8.90961 27.8282C8.86338 27.8663 8.81759 27.905 8.77225 27.9442ZM11.9824 26.2566L21.6619 36.3084C21.8818 35.5775 22 34.8025 22 34C22 33.6578 21.9785 33.3206 21.9368 32.9897C21.9112 32.7866 21.878 32.5858 21.8375 32.3877C21.1775 29.1625 18.5767 26.6442 15.3086 26.1065C15.2786 26.1016 15.2485 26.0968 15.2183 26.0922C14.8211 26.0315 14.4142 26 14 26C13.3031 26 12.6269 26.0891 11.9824 26.2566ZM15.9842 41.752L6.24799 32.0158C6.08607 32.6503 6 33.3151 6 34C6 34.4884 6.04377 34.9666 6.1276 35.4309C6.13857 35.4916 6.15021 35.5521 6.16253 35.6123C6.81425 38.7972 9.35855 41.2927 12.5691 41.8724C12.574 41.8733 12.5789 41.8742 12.5839 41.875C13.0435 41.9572 13.5168 42 14 42C14.6849 42 15.3497 41.9139 15.9842 41.752ZM35.9876 26.4967C34.7509 25.8344 33.2491 25.8344 32.0124 26.4967L28.118 28.5821C26.8111 29.2819 26 30.6133 26 32.0588V35.9412C26 37.3867 26.8111 38.7182 28.118 39.4179L32.0124 41.5033C33.2491 42.1656 34.7509 42.1656 35.9876 41.5033L39.882 39.4179C41.1889 38.7182 42 37.3867 42 35.9412V32.0588C42 30.6133 41.1889 29.2819 39.882 28.5821L35.9876 26.4967Z" fill="#212121"/>
</svg>

<svg viewBox="0 0 48 48" fill="none" xmlns="http://www.w3.org/2000/svg" height="1em" width="1em">
  <path d="M31 6a5 5 0 0 0-5 5v6a5 5 0 0 0 5 5h6a5 5 0 0 0 5-5v-6a5 5 0 0 0-5-5h-6ZM16.904 7.797C15.7 5.4 12.31 5.4 11.105 7.797l-4.743 9.432C5.262 19.413 6.835 22 9.26 22h9.488c2.426 0 3.998-2.587 2.899-4.771l-4.744-9.432ZM8.772 27.944a8.044 8.044 0 0 0-1.434 1.626l-.001.001.047.045L18.43 40.662a8.045 8.045 0 0 0 2.053-1.974L9.559 27.345a7.76 7.76 0 0 0-.787.6Zm3.21-1.687 9.68 10.051a8 8 0 0 0 .275-3.318 8.008 8.008 0 0 0-9.954-6.733Zm4.002 15.495-9.736-9.736a8.015 8.015 0 0 0-.085 3.596 8.009 8.009 0 0 0 9.821 6.14Zm20.004-15.255a4.225 4.225 0 0 0-3.976 0l-3.894 2.085c-1.307.7-2.118 2.031-2.118 3.477v3.882c0 1.446.811 2.777 2.118 3.477l3.894 2.085a4.225 4.225 0 0 0 3.976 0l3.894-2.085c1.307-.7 2.118-2.031 2.118-3.477V32.06c0-1.446-.811-2.777-2.118-3.477l-3.894-2.085Z" fill="#212121"/>
</svg>
